src/components/footer/img/schedule.svg

<svg width="25" height="25" viewBox="0 0 25 25" fill="none" xmlns="http://www.w3.org/2000/svg">
<path d="M21.5111 7.093C21.0384 7.32172 20.8405 7.89061 21.0693 8.36313C21.6941 9.65393 22.0108 11.0453 22.0108 12.5C22.0108 17.7442 17.7442 22.0109 12.5 22.0109C7.25574 22.0109 2.98909 17.7442 2.98909 12.5C2.98909 7.25577 7.25574 2.98912 12.5 2.98912C14.6731 2.98912 16.7146 3.69872 18.4043 5.04106C18.8141 5.36823 19.4135 5.29973 19.7406 4.88851C20.0678 4.47751 19.9993 3.87891 19.5878 3.5522C17.5874 1.96233 15.0702 1.08694 12.5 1.08694C6.20713 1.08694 1.08691 6.20716 1.08691 12.5C1.08691 18.7928 6.20713 23.913 12.5 23.913C18.7928 23.913 23.913 18.7928 23.913 12.5C23.913 10.7562 23.5322 9.08504 22.7813 7.53488C22.553 7.06119 21.9823 6.86382 21.5111 7.093Z" fill="white"/>
<path d="M12.9945 4.73911C12.4695 4.73911 12.0435 5.16519 12.0435 5.69019V12.3478C12.0435 12.8728 12.4695 13.2989 12.9945 13.2989H17.75C18.275 13.2989 18.7011 12.8728 18.7011 12.3478C18.7011 11.8228 18.275 11.3967 17.75 11.3967H13.9456V5.69019C13.9456 5.16519 13.5195 4.73911 12.9945 4.73911Z" fill="white"/>
</svg>

<svg width="25" height="25" fill="none" xmlns="http://www.w3.org/2000/svg" viewBox="0 0 25 25">
  <path d="M21.511 7.093a.95.95 0 00-.442 1.27 9.415 9.415 0 01.942 4.137c0 5.244-4.267 9.51-9.511 9.51-5.244 0-9.51-4.266-9.51-9.51s4.266-9.51 9.51-9.51c2.173 0 4.215.709 5.904 2.051a.95.95 0 101.184-1.489c-2-1.59-4.518-2.465-7.088-2.465-6.293 0-11.413 5.12-11.413 11.413S6.207 23.913 12.5 23.913s11.413-5.12 11.413-11.413c0-1.744-.38-3.415-1.132-4.965a.95.95 0 00-1.27-.442z" fill="#fff"/>
  <path d="M12.995 4.74a.951.951 0 00-.951.95v6.658c0 .525.425.95.95.95h4.756a.951.951 0 000-1.901h-3.804V5.69a.951.951 0 00-.951-.95z" fill="#fff"/>
</svg>
